X: 16
M: 4/4
L: 1/8
K: F
(3cde |:\
"F"fdcA "A/F7"FAcA | "Bb"BABc "C7"d2cB | "F"Acdc "Dm"fdcA | "Gm"B2G2 "C7"Gcde |
"F"fdcA "A/F7"FAcA | "Bb"BABc "C7"d2cB | "F"Acfd "C7"cABG |1 "F"A2F2 "C7"Fcde :|2 "F"A2F2 F2"C7"FD ||
"F"CFAF "A/F7"cAFC | "Bb"DFBF "D/Bb"d2cB | "F"ABcA "Dm"fdcA | "Gm"B2G2 "C7"G2FD |
"F"CFAF "A/F7"cAFC | "Bb"DFBd "D/Bb"f2ed | "A/F"cfAc "G/C7"BdGB | "F"AFFE "C7"F2FD |
"F"CFAF "A/F7"cAFC | "Bb"DFBF "D/Bb"d2cB | "F"ABcA "Dm"fdcA | "Gm"B2G2 "E/C7"Gcde |
"F"fdcA "A/F7"FAcA | "Bb"BABc "C7"d2cB | "F"Acfd "C7"cABG | "F"A2F2 "F"F2F2 |]
on 'Second Celebration' by the Lothian Scottish Dance Band in 1986. This was one of several recordings made
by the band when Barry was teacher for the RSCDS Sutton Coldfield Branch. The title reminds me of many
pleasant days spent with my wife's aunt and uncle who lived in Fullarton Drive, Troon.


